!!! OTL: Berkowitz297
!!! Chapter: 1
!!! Section: III
!!! Page: 71
!!! Mode: 
!!! Encoder: DJB
**kern
*staff1
*I"Piano
=1-
*clefG2
*k[b-]
*F:
*M4/4
4r
4r
8.r
16cc\
8.bn\L
16cc\Jk
=2
4dd\
4cc\
4.ff\
8a/
=3
4a/
4g/
8.r
16f/
8.e/L
16f/Jk
=4
8.g/L
16a/Jk
8.b-\L
16cc\Jk
4dd\
4ee\
=5
2cc\
8.r
16cc\
8.bn\L
16cc\Jk
=6
4dd\
4cc\
4.ff\
8a/
=7
4a/
4g/
4.ee\
8dd\
=8
!!linebreak:original
8.cc\L
16dd\Jk
8.cc\L
16dd\Jk
8.cc\L
16b-\Jk
8.g/L
16a/Jk
=9
2g/
4f/
4r
==
*-
